src/assets/images/icons/app-icon-survey.svg

<svg xmlns="http://www.w3.org/2000/svg" viewBox="0 0 96 96">
  <g fill="none" fill-rule="evenodd">
    <path d="M0 0h96v96H0z"/>
    <path fill="#00A69B" fill-rule="nonzero" d="M74.6 77.4 66 68.8V56h4v11.16l7.4 7.4-2.8 2.84ZM68 40c1.36 0 2.68.12 4 .32V20h-8v12H32V20h-8v60h18.72C41 76.36 40 72.32 40 68c0-15.48 12.52-28 28-28ZM48 20c-2.2 0-4-1.8-4-4s1.8-4 4-4 4 1.8 4 4-1.8 4-4 4Z" opacity=".497"/>
    <path fill="#575752" fill-rule="nonzero" d="M68 48c-11.04 0-20 8.96-20 20s8.96 20 20 20 20-8.96 20-20-8.96-20-20-20Zm6.6 29.4L66 68.8V56h4v11.16l7.4 7.4-2.8 2.84ZM72 12H59.28C57.6 7.36 53.2 4 48 4c-5.2 0-9.6 3.36-11.28 8H24c-4.4 0-8 3.6-8 8v60c0 4.4 3.6 8 8 8h24.44c-2.36-2.28-4.28-5-5.68-8H24V20h8v12h32V20h8v20.32c2.84.4 5.52 1.24 8 2.4V20c0-4.4-3.6-8-8-8Zm-24 8c-2.2 0-4-1.8-4-4s1.8-4 4-4 4 1.8 4 4-1.8 4-4 4Z"/>
  </g>
</svg>

<?xml version="1.0" encoding="UTF-8"?>
<svg width="96px" height="96px" viewBox="0 0 96 96" version="1.1" xmlns="http://www.w3.org/2000/svg" xmlns:xlink="http://www.w3.org/1999/xlink">
    <!-- Generator: Sketch 52.6 (67491) - http://www.bohemiancoding.com/sketch -->
    <title>app-icon-market copy 2@1x</title>
    <desc>Created with Sketch.</desc>
    <g id="app-icon-market-copy-2" stroke="none" stroke-width="1" fill="none" fill-rule="evenodd">
        <g id="pending_actions-24px">
            <rect id="Rectangle" x="0" y="0" width="96" height="96"></rect>
            <path d="M74.6,77.4 L66,68.8 L66,56 L70,56 L70,67.16 L77.4,74.56 L74.6,77.4 Z M68,40 C69.36,40 70.68,40.12 72,40.32 L72,20 L64,20 L64,32 L32,32 L32,20 L24,20 L24,80 L42.72,80 C41,76.36 40,72.32 40,68 C40,52.52 52.52,40 68,40 Z M48,20 C45.8,20 44,18.2 44,16 C44,13.8 45.8,12 48,12 C50.2,12 52,13.8 52,16 C52,18.2 50.2,20 48,20 Z" id="Shape" fill="#00A69B" fill-rule="nonzero" opacity="0.497346279"></path>
            <path d="M68,48 C56.96,48 48,56.96 48,68 C48,79.04 56.96,88 68,88 C79.04,88 88,79.04 88,68 C88,56.96 79.04,48 68,48 Z M74.6,77.4 L66,68.8 L66,56 L70,56 L70,67.16 L77.4,74.56 L74.6,77.4 Z M72,12 L59.28,12 C57.6,7.36 53.2,4 48,4 C42.8,4 38.4,7.36 36.72,12 L24,12 C19.6,12 16,15.6 16,20 L16,80 C16,84.4 19.6,88 24,88 L48.44,88 C46.08,85.72 44.16,83 42.76,80 L24,80 L24,20 L32,20 L32,32 L64,32 L64,20 L72,20 L72,40.32 C74.84,40.72 77.52,41.56 80,42.72 L80,20 C80,15.6 76.4,12 72,12 Z M48,20 C45.8,20 44,18.2 44,16 C44,13.8 45.8,12 48,12 C50.2,12 52,13.8 52,16 C52,18.2 50.2,20 48,20 Z" id="Shape" fill="#575752" fill-rule="nonzero"></path>
        </g>
    </g>
</svg>
